dist/svg/print.svg

<!-- Generated by Trend Micro Style Portal -->
<svg version="1.1" xmlns="http://www.w3.org/2000/svg" width="16" height="16" viewBox="0 0 16 16">
  <title>print</title>
  <path fill="rgb(34,34,34)" d="M15 6h-14c-0.552 0-1 0.448-1 1v0 5h3v3c0 0.552 0.448 1 1 1v0h8c0.552 0 1-0.448 1-1v0-3h3v-5c0-0.552-0.448-1-1-1v0zM12 12v3h-8v-5h8v2zM15 8h-1v-1h1v1zM13 1c0-0.552-0.448-1-1-1v0h-8c-0.552 0-1 0.448-1 1v0 4h10v-4zM12 4h-8v-3h8v3z"></path>
</svg>

<svg width="16" height="16" viewBox="0 0 16 16" fill="rgb(34, 34, 34)" xmlns="http://www.w3.org/2000/svg"><title>print</title><path d="M15 6H1C0.448 6 0 6.448 0 7V12H3V15C3 15.552 3.448 16 4 16H12C12.552 16 13 15.552 13 15V12H16V7C16 6.448 15.552 6 15 6ZM12 12V15H4V10H12V12ZM15 8H14V7H15V8ZM13 1C13 0.448 12.552 0 12 0H4C3.448 0 3 0.448 3 1V5H13V1ZM12 4H4V1H12V4Z" fill="rgb(34, 34, 34)" fill-opacity="1.00"/></svg>
